X: 10681
T: Down The Green Fields
R: jig
M: 6/8
K: Gmajor
|:gfe d2B|cAA BGG|gfe d2B|cBA GBd|
gfe d2B|cAA G2B|def gdB|1 cAF GBd:|2 cAF G2F||
|:EFG A2B|cAA BGG|EFG A2B|cBA G2F|
EFG A2B|cAA G2B|def gdB|1 cAF G2F:|2 cAF GBd||

